Src/Delivery/studio/bitmaps/src/icons/11/8.svg

<?xml version="1.0" encoding="UTF-8"?>
<svg width="100" height="100" version="1.1" viewBox="0 0 100 100" xmlns="http://www.w3.org/2000/svg">
 <path d="m50 10a5 5 0 0 0-5 5v5.5312a25 25 0 0 0-20 24.469v20l-10 10v5h70v-5l-10-10v-20a25 25 0 0 0-20-24.494v-5.5059a5 5 0 0 0-5-5zm-10 73c0 5.5228 4.4772 10 10 10s10-4.4772 10-10z" fill="#787878" fill-rule="evenodd" stroke="#fff" stroke-linecap="round" stroke-linejoin="round" stroke-width="2" style="paint-order:fill markers stroke"/>
</svg>

<?xml version="1.0" encoding="UTF-8" standalone="no"?>
<svg
   xmlns:dc="http://purl.org/dc/elements/1.1/"
   xmlns:cc="http://creativecommons.org/ns#"
   xmlns:rdf="http://www.w3.org/1999/02/22-rdf-syntax-ns#"
   xmlns:svg="http://www.w3.org/2000/svg"
   xmlns="http://www.w3.org/2000/svg"
   xmlns:sodipodi="http://sodipodi.sourceforge.net/DTD/sodipodi-0.dtd"
   xmlns:inkscape="http://www.inkscape.org/namespaces/inkscape"
   height="100"
   viewBox="0 0 100 100"
   width="100"
   version="1.1"
   id="svg4562"
   sodipodi:docname="8.svg"
   inkscape:version="0.92.3 (2405546, 2018-03-11)"
   inkscape:export-filename="E:\eiffelstudio\trunk\Src\Delivery\studio\bitmaps\src\icons\11\8.png"
   inkscape:export-xdpi="15.36"
   inkscape:export-ydpi="15.36">
  <metadata
     id="metadata4568">
    <rdf:RDF>
      <cc:Work
         rdf:about="">
        <dc:format>image/svg+xml</dc:format>
        <dc:type
           rdf:resource="http://purl.org/dc/dcmitype/StillImage" />
        <dc:title></dc:title>
      </cc:Work>
    </rdf:RDF>
  </metadata>
  <defs
     id="defs4566" />
  <sodipodi:namedview
     pagecolor="#ffffff"
     bordercolor="#666666"
     borderopacity="1"
     objecttolerance="10"
     gridtolerance="10"
     guidetolerance="10"
     inkscape:pageopacity="0"
     inkscape:pageshadow="2"
     inkscape:window-width="1920"
     inkscape:window-height="1147"
     id="namedview4564"
     showgrid="true"
     showguides="true"
     inkscape:guide-bbox="true"
     inkscape:zoom="5.135"
     inkscape:cx="-22.395498"
     inkscape:cy="20.160803"
     inkscape:window-x="-8"
     inkscape:window-y="949"
     inkscape:window-maximized="1"
     inkscape:current-layer="svg4562">
    <inkscape:grid
       type="xygrid"
       id="grid4587" />
  </sodipodi:namedview>
  <path
     style="opacity:1;fill:#787878;fill-opacity:1;fill-rule:evenodd;stroke:#ffffff;stroke-width:2;stroke-linecap:round;stroke-linejoin:round;stroke-miterlimit:4;stroke-dasharray:none;stroke-dashoffset:0;stroke-opacity:1;paint-order:fill markers stroke"
     d="m 50,10 a 5,5 0 0 0 -5,5 v 5.53125 A 25,25 0 0 0 25,45 V 65 L 15,75 v 5 H 85 V 75 L 75,65 V 45 A 25,25 0 0 0 55,20.505859 V 15 A 5,5 0 0 0 50,10 Z M 40,83 c 0,5.52285 4.477153,10 10,10 5.522847,0 10,-4.47715 10,-10 z"
     id="rect4593"
     inkscape:connector-curvature="0" />
</svg>
